public/images/data/흑미강발효분말 살모넬라 사망률.svg

<?xml version="1.0" encoding="UTF-8"?>
<svg id="_레이어_1" data-name="레이어 1" xmlns="http://www.w3.org/2000/svg" viewBox="0 0 348.371 254.465">
  <defs>
    <style>
      .cls-1 {
        letter-spacing: -.003em;
      }

      .cls-2 {
        letter-spacing: -.004em;
      }

      .cls-3 {
        letter-spacing: .004em;
      }

      .cls-4 {
        font-size: 9px;
      }

      .cls-4, .cls-5 {
        fill: #231f20;
        font-family: Freesentation-6SemiBold, Freesentation;
        font-weight: 600;
      }

      .cls-6 {
        font-family: Calibri, Calibri;
      }

      .cls-6, .cls-7 {
        font-size: 9.96px;
      }

      .cls-5 {
        font-size: 12px;
      }

      .cls-8 {
        letter-spacing: -.003em;
      }

      .cls-9 {
        letter-spacing: .005em;
      }

      .cls-10 {
        letter-spacing: .014em;
      }

      .cls-11 {
        stroke: #868686;
        stroke-width: .72px;
      }

      .cls-11, .cls-12, .cls-13, .cls-14 {
        fill: none;
        stroke-linejoin: round;
      }

      .cls-15 {
        letter-spacing: .002em;
      }

      .cls-12 {
        stroke: #b3a3c7;
      }

      .cls-12, .cls-13, .cls-14 {
        stroke-linecap: round;
        stroke-width: 2.28px;
      }

      .cls-13 {
        stroke: #000;
      }

      .cls-7 {
        font-family: Calibri-Bold, Calibri;
        font-weight: 700;
      }

      .cls-16 {
        letter-spacing: -.004em;
      }

      .cls-14 {
        stroke: #614b7b;
      }

      .cls-17 {
        letter-spacing: .003em;
      }

      .cls-18 {
        letter-spacing: .004em;
      }

      .cls-19 {
        letter-spacing: 0em;
      }
    </style>
  </defs>
  <line class="cls-11" x1="25.643" y1="223.777" x2="25.643" y2="33.817"/>
  <path class="cls-11" d="m22.523,223.777h3.12m-3.12-31.68h3.12m-3.12-31.68h3.12m-3.12-31.68h3.12m-3.12-31.68h3.12m-3.12-31.56h3.12m-3.12-31.68h3.12"/>
  <line class="cls-11" x1="25.643" y1="223.777" x2="343.403" y2="223.777"/>
  <path class="cls-11" d="m25.643,223.777v3.24m52.92-3.24v3.24m53.04-3.24v3.24m52.92-3.24v3.24m52.92-3.24v3.24m52.92-3.24v3.24m53.04-3.24v3.24"/>
  <polyline class="cls-13" points="36.263 65.437 46.823 65.437 46.823 81.277 57.383 81.277 57.383 97.117 68.063 97.117 68.063 112.957 78.623 112.957 78.623 160.477 89.183 160.477 89.183 192.157 99.743 192.157 99.743 223.837"/>
  <polyline class="cls-12" points="36.263 65.437 46.823 65.437 57.383 65.437 68.063 65.437 78.623 65.437 89.183 65.437 99.743 65.437 99.743 81.277 110.423 81.277 120.983 81.277 120.983 97.117 131.543 97.117 131.543 128.797 142.103 128.797 152.783 128.797 152.783 144.637 163.343 144.637 173.903 144.637 184.463 144.637 195.143 144.637 195.143 160.477 205.703 160.477 216.263 160.477 216.263 176.317 226.823 176.317 237.503 176.317 237.503 207.997 248.063 207.997 258.623 207.997 258.623 223.837"/>
  <polyline class="cls-14" points="36.263 65.437 46.823 65.437 57.383 65.437 68.063 65.437 78.623 65.437 89.183 65.437 99.743 65.437 110.423 65.437 120.983 65.437 120.983 81.277 131.543 81.277 142.103 81.277 142.103 97.117 152.783 97.117 163.343 97.117 163.343 112.957 173.903 112.957 184.463 112.957 184.463 128.797 195.143 128.797 205.703 128.797 216.263 128.797 216.263 144.637 226.823 144.637 237.503 144.637 237.503 160.477 248.063 160.477 258.623 160.477 258.623 176.317 269.183 176.317 279.863 176.317 290.423 176.317 290.423 192.157 300.983 192.157 300.983 207.997 311.543 207.997 322.223 207.997 322.223 223.837"/>
  <text class="cls-6" transform="translate(11.322 226.636)"><tspan x="0" y="0">0</tspan></text>
  <text class="cls-6" transform="translate(11.322 194.964)"><tspan x="0" y="0">2</tspan></text>
  <text class="cls-6" transform="translate(11.322 163.292)"><tspan x="0" y="0">4</tspan></text>
  <text class="cls-6" transform="translate(11.322 131.612)"><tspan x="0" y="0">6</tspan></text>
  <text class="cls-6" transform="translate(11.322 99.941)"><tspan x="0" y="0">8</tspan></text>
  <text class="cls-6" transform="translate(6.252 68.269)"><tspan x="0" y="0">10</tspan></text>
  <text class="cls-6" transform="translate(6.252 36.597)"><tspan x="0" y="0">12</tspan></text>
  <text class="cls-6" transform="translate(23.134 239.644)"><tspan x="0" y="0">0</tspan></text>
  <text class="cls-6" transform="translate(76.08 239.644)"><tspan x="0" y="0">5</tspan></text>
  <text class="cls-6" transform="translate(126.486 239.644)"><tspan x="0" y="0">10</tspan></text>
  <text class="cls-6" transform="translate(179.439 239.644)"><tspan x="0" y="0">15</tspan></text>
  <text class="cls-6" transform="translate(232.384 239.644)"><tspan x="0" y="0">20</tspan></text>
  <text class="cls-6" transform="translate(285.33 239.644)"><tspan x="0" y="0">25</tspan></text>
  <text class="cls-6" transform="translate(338.275 239.644)"><tspan x="0" y="0">30</tspan></text>
  <text class="cls-7" transform="translate(145.791 250.987)"><tspan class="cls-8" x="0" y="0">D</tspan><tspan x="6.249" y="0">a</tspan><tspan class="cls-8" x="11.166" y="0">y</tspan><tspan class="cls-19" x="15.853" y="0">s</tspan><tspan class="cls-10" x="19.816" y="0"> </tspan><tspan class="cls-9" x="22.208" y="0">p</tspan><tspan class="cls-3" x="27.602" y="0">o</tspan><tspan class="cls-19" x="32.996" y="0">s</tspan><tspan class="cls-16" x="36.959" y="0">ti</tspan><tspan class="cls-9" x="42.751" y="0">n</tspan><tspan class="cls-1" x="48.146" y="0">f</tspan><tspan class="cls-15" x="51.267" y="0">e</tspan><tspan class="cls-17" x="56.301" y="0">ct</tspan><tspan class="cls-2" x="60.498" y="0">i</tspan><tspan class="cls-18" x="66.29" y="0">o</tspan><tspan x="71.684" y="0">n</tspan></text>
  <text class="cls-5" transform="translate(50.807 184.42)"><tspan x="0" y="0">무처리</tspan></text>
  <text class="cls-5" transform="translate(177.125 185.104)"><tspan x="0" y="0">경구투여</tspan></text>
  <text class="cls-5" transform="translate(248.358 152.203)"><tspan x="0" y="0">복강투여</tspan></text>
  <text class="cls-4" transform="translate(264.32 81.53)"><tspan x="0" y="0">실험모델 : 마우스</tspan><tspan x="0" y="10.8">시험물질 : 흑미강발효분말</tspan><tspan x="0" y="21.6">투여량 : 10mg/kg</tspan></text>
  <text class="cls-5" transform="translate(9.156 10.356)"><tspan x="0" y="0">생존</tspan><tspan x="-9.156" y="14.4">마우스</tspan></text>
</svg>

<?xml version="1.0" encoding="utf-8"?>
<!-- Generator: Adobe Illustrator 28.0.0, SVG Export Plug-In . SVG Version: 6.00 Build 0)  -->
<svg version="1.1" id="_레이어_1" xmlns="http://www.w3.org/2000/svg" xmlns:xlink="http://www.w3.org/1999/xlink" x="0px"
	 y="0px" viewBox="0 0 348.4 254.5" style="enable-background:new 0 0 348.4 254.5;" xml:space="preserve">
<style type="text/css">
	.st0{fill:#FFFFFF;}
	.st1{fill:none;stroke:#868686;stroke-width:0.72;stroke-linejoin:round;}
	.st2{fill:none;stroke:#000000;stroke-width:2.28;stroke-linecap:round;stroke-linejoin:round;}
	.st3{fill:none;stroke:#B3A3C7;stroke-width:2.28;stroke-linecap:round;stroke-linejoin:round;}
	.st4{fill:none;stroke:#614B7B;stroke-width:2.28;stroke-linecap:round;stroke-linejoin:round;}
	.st5{font-family:'Calibri';}
	.st6{font-size:9.96px;}
	.st7{font-family:'Calibri-Bold';}
	.st8{fill:#231F20;}
	.st9{font-family:'Freesentation-6SemiBold';}
	.st10{font-size:12px;}
	.st11{font-size:9px;}
</style>
<rect class="st0" width="348.4" height="254.5"/>
<line class="st1" x1="25.6" y1="223.8" x2="25.6" y2="33.8"/>
<path class="st1" d="M22.5,223.8h3.1 M22.5,192.1h3.1 M22.5,160.4h3.1 M22.5,128.7h3.1 M22.5,97.1h3.1 M22.5,65.5h3.1 M22.5,33.8
	h3.1"/>
<line class="st1" x1="25.6" y1="223.8" x2="343.4" y2="223.8"/>
<path class="st1" d="M25.6,223.8v3.2 M78.6,223.8v3.2 M131.6,223.8v3.2 M184.5,223.8v3.2 M237.4,223.8v3.2 M290.4,223.8v3.2
	 M343.4,223.8v3.2"/>
<polyline class="st2" points="36.3,65.4 46.8,65.4 46.8,81.3 57.4,81.3 57.4,97.1 68.1,97.1 68.1,113 78.6,113 78.6,160.5 
	89.2,160.5 89.2,192.2 99.7,192.2 99.7,223.8 "/>
<polyline class="st3" points="36.3,65.4 46.8,65.4 57.4,65.4 68.1,65.4 78.6,65.4 89.2,65.4 99.7,65.4 99.7,81.3 110.4,81.3 
	121,81.3 121,97.1 131.5,97.1 131.5,128.8 142.1,128.8 152.8,128.8 152.8,144.6 163.3,144.6 173.9,144.6 184.5,144.6 195.1,144.6 
	195.1,160.5 205.7,160.5 216.3,160.5 216.3,176.3 226.8,176.3 237.5,176.3 237.5,208 248.1,208 258.6,208 258.6,223.8 "/>
<polyline class="st4" points="36.3,65.4 46.8,65.4 57.4,65.4 68.1,65.4 78.6,65.4 89.2,65.4 99.7,65.4 110.4,65.4 121,65.4 
	121,81.3 131.5,81.3 142.1,81.3 142.1,97.1 152.8,97.1 163.3,97.1 163.3,113 173.9,113 184.5,113 184.5,128.8 195.1,128.8 
	205.7,128.8 216.3,128.8 216.3,144.6 226.8,144.6 237.5,144.6 237.5,160.5 248.1,160.5 258.6,160.5 258.6,176.3 269.2,176.3 
	279.9,176.3 290.4,176.3 290.4,192.2 301,192.2 301,208 311.5,208 322.2,208 322.2,223.8 "/>
<text transform="matrix(1 0 0 1 11.322 226.636)" class="st5 st6">0</text>
<text transform="matrix(1 0 0 1 11.322 194.964)" class="st5 st6">2</text>
<text transform="matrix(1 0 0 1 11.322 163.292)" class="st5 st6">4</text>
<text transform="matrix(1 0 0 1 11.322 131.612)" class="st5 st6">6</text>
<text transform="matrix(1 0 0 1 11.322 99.941)" class="st5 st6">8</text>
<text transform="matrix(1 0 0 1 6.252 68.269)" class="st5 st6">10</text>
<text transform="matrix(1 0 0 1 6.252 36.597)" class="st5 st6">12</text>
<text transform="matrix(1 0 0 1 23.134 239.644)" class="st5 st6">0</text>
<text transform="matrix(1 0 0 1 76.08 239.644)" class="st5 st6">5</text>
<text transform="matrix(1 0 0 1 126.486 239.644)" class="st5 st6">10</text>
<text transform="matrix(1 0 0 1 179.439 239.644)" class="st5 st6">15</text>
<text transform="matrix(1 0 0 1 232.384 239.644)" class="st5 st6">20</text>
<text transform="matrix(1 0 0 1 285.33 239.644)" class="st5 st6">25</text>
<text transform="matrix(1 0 0 1 338.275 239.644)" class="st5 st6">30</text>
<text transform="matrix(1 0 0 1 145.791 250.987)" class="st7 st6">D</text>
<text transform="matrix(1 0 0 1 152.04 250.987)" class="st7 st6">a</text>
<text transform="matrix(1 0 0 1 156.957 250.987)" class="st7 st6">y</text>
<text transform="matrix(1 0 0 1 161.644 250.987)" class="st7 st6">s</text>
<text transform="matrix(1 0 0 1 165.607 250.987)" class="st7 st6"> </text>
<text transform="matrix(1 0 0 1 167.999 250.987)" class="st7 st6">p</text>
<text transform="matrix(1 0 0 1 173.393 250.987)" class="st7 st6">o</text>
<text transform="matrix(1 0 0 1 178.787 250.987)" class="st7 st6">s</text>
<text transform="matrix(1 0 0 1 182.75 250.987)" class="st7 st6">ti</text>
<text transform="matrix(1 0 0 1 188.542 250.987)" class="st7 st6">n</text>
<text transform="matrix(1 0 0 1 193.937 250.987)" class="st7 st6">f</text>
<text transform="matrix(1 0 0 1 197.058 250.987)" class="st7 st6">e</text>
<text transform="matrix(1 0 0 1 202.092 250.987)" class="st7 st6">ct</text>
<text transform="matrix(1 0 0 1 206.289 250.987)" class="st7 st6">i</text>
<text transform="matrix(1 0 0 1 212.081 250.987)" class="st7 st6">o</text>
<text transform="matrix(1 0 0 1 217.475 250.987)" class="st7 st6">n</text>
<text transform="matrix(1 0 0 1 50.807 184.42)" class="st8 st9 st10">무처리</text>
<text transform="matrix(1 0 0 1 177.125 185.104)" class="st8 st9 st10">경구투여</text>
<text transform="matrix(1 0 0 1 248.358 152.203)" class="st8 st9 st10">복강투여</text>
<text transform="matrix(1 0 0 1 264.32 81.53)" class="st8 st9 st11">실험모델 : 마우스</text>
<text transform="matrix(1 0 0 1 264.32 92.33)" class="st8 st9 st11">시험물질 : 흑미강발효분말</text>
<text transform="matrix(1 0 0 1 264.32 103.13)" class="st8 st9 st11">투여량 : 10mg/kg</text>
<text transform="matrix(1 0 0 1 9.156 10.356)" class="st8 st9 st10">생존</text>
<text transform="matrix(1 0 0 1 0 24.756)" class="st8 st9 st10">마우스</text>
</svg>
